X: 31167
T: Paddy Fahey's
R: jig
M: 6/8
K: Dmajor
|:A|DFA d2 e|dcA GFG|AFD =cBc|edc AGE|
DFA d2 e|dcA GFG|Adc AGE|EDD D2:|
|:A|dcd fed|cA^G A2 B|=cBc edc|BGB cde|
Add fed|cAG EFG|Adc AGE|EDD D2:|

